svgs/duotone/kit-medical.svg

<svg xmlns="http://www.w3.org/2000/svg" viewBox="0 0 576 512"><!--! Font Awesome Pro 6.3.0 by @fontawesome - https://fontawesome.com License - https://fontawesome.com/license (Commercial License) Copyright 2023 Fonticons, Inc. --><defs><style>.fa-secondary{opacity:.4}</style></defs><path class="fa-primary" d="M512 32h-32v448h32c35.35 0 64-28.66 64-64V96C576 60.66 547.3 32 512 32zM0 96v320c0 35.34 28.65 64 64 64h32V32H64C28.65 32 0 60.66 0 96zM128 480h320V32H128V480zM176 230c0-8.837 7.164-16 16-16h53.1V160c0-8.836 7.165-16 16-16h52c8.836 0 16 7.164 16 16v54H384c8.836 0 16 7.163 16 16v52c0 8.835-7.164 16-16 16h-54V352c0 8.836-7.164 16-16 16h-52c-8.835 0-16-7.164-16-16V298H192c-8.836 0-16-7.165-16-16V230z"/><path class="fa-secondary" d="M96 480h32V32H96V480zM448 32v448h32V32H448z"/></svg>

<svg xmlns="http://www.w3.org/2000/svg" viewBox="0 0 576 512"><!-- Font Awesome Pro 6.0.0-alpha2 by @fontawesome - https://fontawesome.com License - https://fontawesome.com/license (Commercial License) --><defs><style>.fa-secondary{opacity:.4}</style></defs><path d="M96 480H128V32H96V480ZM448 32V480H480V32H448Z" class="fa-secondary"/><path d="M512 32H480V480H512C547.348 480 576 451.344 576 416V96C576 60.656 547.348 32 512 32ZM0 96V416C0 451.344 28.652 480 64 480H96V32H64C28.652 32 0 60.656 0 96ZM128 480H448V32H128V480ZM176 230.001C176 221.164 183.164 214.001 192 214.001H245.999V160C245.999 151.164 253.164 144 261.999 144H313.999C322.836 144 329.999 151.164 329.999 160V214.001H384C392.836 214.001 400 221.164 400 230.001V282.001C400 290.836 392.836 298.001 384 298.001H329.999V352C329.999 360.836 322.836 368 313.999 368H261.999C253.164 368 245.999 360.836 245.999 352V298.001H192C183.164 298.001 176 290.836 176 282.001V230.001Z" class="fa-primary"/></svg>
